X: 2796
T: Banshee, The
R: reel
M: 4/4
K: Gmajor
"G"~G3D EDEG|"Am"~A3B "D7"d2 Bd|"C"eged "G"BAGA|"Am"BAGE "D7"EDEF|
"G"~G3D EDEG|"Am"~A3B "D7"d2 Bd|"C"eged "G"BAGA|"Am"BAGE "D7"EDD2||
"Am"eaag efge|"G"dBBA "Bm"B2Bd|"Em"e~B3 eBgB|eBBA B2Bd|
"Am"eaag efge|"G"dBBA "Bm"B2Bd|"C"eged "G"BAGA|"Am"BAGE "D7"EDD2||

